svg/libre-brand-joomla.svg

<svg role="img" focusable="false" aria-hidden="true" xmlns="http://www.w3.org/2000/svg" viewBox="0 0 14 14"><path d="M 2.2649612,4.179364 C 1.9939009,5.086087 2.2155322,6.108675 2.9314507,6.824593 L 5.6011291,9.491614 6.784759,8.307453 4.1150808,5.640432 C 3.7324074,5.257227 3.7313444,4.632194 4.1172108,4.246331 4.5020102,3.861532 5.1249174,3.861532 5.5091853,4.2458 L 5.6011333,4.33828 6.785826,3.154119 6.693876,3.062169 C 6.0183494,2.386645 5.0707013,2.150663 4.2043712,2.353693 4.0800024,1.591003 3.4182963,1.009021 2.6199971,1.008489 c -0.8865268,0 -1.6045709,0.719107 -1.6051024,1.605634 0,0.764815 0.5341483,1.404199 1.2500665,1.566304 z M 4.4871243,5.730785 5.6718174,6.914947 8.340964,4.247926 c 0.385863,-0.385862 1.007707,-0.3848 1.390912,-0.0021 0.384268,0.384268 0.384268,1.007707 -5.32e-4,1.392506 l -0.09142,0.09142 1.18363,1.184693 0.09248,-0.09248 c 0.707946,-0.709009 0.933298,-1.717778 0.674994,-2.617592 0.786606,-0.103641 1.393569,-0.77704 1.393569,-1.591815 5.31e-4,-0.887059 -0.718576,-1.605634 -1.605103,-1.605634 -0.811586,0 -1.482327,0.602179 -1.59022,1.38347 C 8.886271,2.12518 7.87006,2.349474 7.1568,3.062199 L 6.925601,3.292866 4.4865899,5.729751 Z m 7.1331387,4.0675 C 11.831796,8.927171 11.596873,7.968893 10.916037,7.288053 L 8.250079,4.619438 7.065386,5.803068 9.731344,8.471683 c 0.385863,0.385863 0.385331,1.007176 0.0021,1.390912 -0.384268,0.383736 -1.008238,0.383736 -1.392506,-5.31e-4 l -0.09089,-0.09089 -1.18363,1.184693 0.09089,0.09089 c 0.721233,0.720701 1.753389,0.94127 2.663832,0.661174 0.148286,0.733458 0.796705,1.285145 1.573745,1.285145 0.885995,0 1.605102,-0.718044 1.605102,-1.605102 0,-0.809992 -0.599522,-1.480202 -1.37975,-1.589689 z M 9.359832,8.380267 8.176202,7.195574 5.5091812,9.864189 C 5.1265078,10.247394 4.5014746,10.248457 4.1156123,9.862595 3.7308129,9.477264 3.7308129,8.854888 4.1150808,8.470089 l 0.091416,-0.09089 -1.1846931,-1.18363 -0.090353,0.09035 C 2.2426386,7.974208 2.0109086,8.945773 2.2346662,9.825391 1.5267204,9.992279 1.000013,10.629005 1.000013,11.387974 c 0,0.886526 0.7185756,1.605102 1.6056338,1.605102 0.7626893,-5.31e-4 1.4010098,-0.532022 1.564709,-1.245283 0.8753654,0.21738 1.8394898,-0.01541 2.5235182,-0.699442 L 9.359832,8.380267 Z"/></svg>

<svg role="img" focusable="false" aria-hidden="true" xmlns="http://www.w3.org/2000/svg" viewBox="0 0 14 14"><path d="m 1.0160714,2.61214 c 0,-0.89177 0.7178572,-1.60946 1.6017857,-1.60946 0.8035715,0 1.4598215,0.58647 1.5857143,1.34434 0.8732143,-0.20353 1.7973215,0.0161 2.5848215,0.80339 L 5.6017857,4.33676 C 5.0526786,3.78777 4.4607143,3.90025 4.1178571,4.24306 c -0.3830357,0.38295 -0.3830357,1.01495 0,1.3979 L 6.7830357,8.30554 5.6044643,9.49188 C 3.2553571,7.15666 4.2732143,8.1609 2.93125,6.82191 2.2133929,6.11225 1.99375,5.08659 2.2669643,4.1734 1.5464286,4.01808 1.0160714,3.37804 1.0160714,2.61214 Z m 3.46875,3.11716 1.1866072,1.18634 C 5.9392857,6.64785 8.0741071,4.5135 8.3419643,4.24303 8.725,3.86008 9.3491071,3.86008 9.7321429,4.24303 10.075,4.58581 10.1875,5.18032 9.6383929,5.72662 L 10.816964,6.91297 C 11.652679,6.07744 11.848214,5.10266 11.591071,4.20286 12.373214,4.09306 12.98125,3.42089 12.98125,2.60946 12.98125,1.72037 12.263393,1 11.379464,1 10.567857,1 9.8955357,1.60254 9.7857143,2.38183 8.8803571,2.11672 7.8651786,2.34163 7.1526786,3.05401 6.6625,3.5655 5.2482143,4.96876 4.4848214,5.7293 Z M 11.617857,9.80518 C 11.8375,8.92948 11.593747,7.97077 10.913393,7.29056 10.597321,6.96385 11.047321,7.41642 8.2482143,4.62062 L 7.0616071,5.80696 9.7321429,8.4769 c 0.3830361,0.38295 0.3830361,1.00692 0,1.38987 -0.3428572,0.34278 -0.9375,0.45526 -1.4839286,-0.0937 l -1.1785714,1.18634 c 0.7392857,0.80875 1.8214285,1.03906 2.7508928,0.74984 0.1473214,0.73376 0.7955353,1.2881 1.5776783,1.2881 C 12.282143,12.99735 13,12.27966 13,11.38789 13,10.57914 12.397321,9.915 11.617857,9.80521 Z M 9.3598214,8.38317 8.18125,7.19683 c -2.3303571,2.31377 -1.35,1.3497 -2.6705357,2.67262 -0.3830357,0.38295 -1.0071429,0.38295 -1.3901786,0 C 3.7696429,9.5106 3.6678571,8.92412 4.2062497,8.38585 L 3.0276786,7.19951 C 2.21875,8.00826 2.0098214,8.94555 2.2375,9.83196 1.5223214,9.99264 1,10.63267 1,11.39054 1,12.2823 1.7178571,13 2.6017857,13 c 0.7660714,0 1.40625,-0.53024 1.5696429,-1.25061 0.8758928,0.21959 1.8348214,-0.0161 2.5232143,-0.69628 0.8598214,-0.85695 0.3267857,-0.33207 2.6651785,-2.66994 z"/></svg>
